X: 244
T: Guafu sifu
%%abc-version 2.0
%%abcx-abcm2ps-target-version 5.9.1 (29 Sep 2008)
%%abc-creator hum2abc beta
%%abcx-conversion-date 2013/10/02 07:52:29
%%abc-edited-by Helmut Schaffrath
%%humdrum-veritas 36110423
%%humdrum-veritas-data 1204382988
%%continueall 1
%%barnumbers 0
L: 1/8
M: 2/4
K: F
d2e d [I:setbarnb 1]| 
c2A G | 
d2e d | 
c2A G | 
f3e | 
d e d c | 
A c A d | 
c2z2 | 
d cd2 | 
d e d c | 
d e d c | 
d f c A | 
G3A | 
G2z2 | 
c2A c | 
d f c A | 
G Ac2 | 
A c A G/ A/ | 
F F/ G/ A G | 
F2z2 |]  



